X: 32572
T: Planxty Irwin
R: waltz
M: 3/4
K: Gmajor
A|d2c B>cd|A2G F>ED|G2E F>GA|~C2D E2c|
d2c B>cd|A2G F>ED|G2E F>GA|D2C D2:|
|:A|d>ed d2d|e2e ecA|[D2A2f2]f e2d|dcB ABc|
d2c B>cd|A2G F>ED|G2E F>GA|D2C D2:|

